X:9485
T:Leitrim Town
S:Treoir, 1991
I:speed 250
M:9/8
K:D
|:FAA dAB AFD | FAA ded B2A | FAA dAB AFD | efe edc B2A:|
|: f2 f efe dcd | fgf def g2b | afd gfe dBA | BAF EFA B3:|


